app/assets/images/heroicons/micro/arrow-path-rounded-square.svg

<svg width="16" height="16" viewBox="0 0 16 16" fill="none" xmlns="http://www.w3.org/2000/svg">
<path fill-rule="evenodd" clip-rule="evenodd" d="M8 3.5C7.22882 3.5 6.46288 3.52209 5.70278 3.56567C5.14144 3.59785 4.69253 4.03441 4.64471 4.59448C4.63865 4.66548 4.63278 4.73653 4.62709 4.80763C4.59408 5.22053 4.2326 5.52848 3.8197 5.49547C3.40681 5.46246 3.09885 5.10098 3.13186 4.68808C3.13776 4.6143 3.14386 4.54056 3.15015 4.46689C3.26145 3.16319 4.31079 2.143 5.61693 2.06813C6.4056 2.02291 7.20017 2 8 2C8.79983 2 9.59439 2.02291 10.3831 2.06812C11.6892 2.143 12.7385 3.16318 12.8498 4.46687C12.9064 5.12917 12.9472 5.79592 12.9719 6.46672L13.7197 5.7189C14.0126 5.42601 14.4874 5.42601 14.7803 5.7189C15.0732 6.01179 15.0732 6.48667 14.7803 6.77956L12.7796 8.78032C12.4867 9.07322 12.0118 9.07322 11.7189 8.78032L9.71967 6.78109C9.42678 6.48819 9.42678 6.01332 9.71967 5.72043C10.0126 5.42753 10.4874 5.42753 10.7803 5.72043L11.4685 6.40864C11.4444 5.80023 11.4066 5.19541 11.3553 4.59447C11.3075 4.03439 10.8586 3.59784 10.2972 3.56566C9.53712 3.52209 8.77118 3.5 8 3.5ZM3.22043 7.2192C3.51333 6.9263 3.9882 6.9263 4.28109 7.2192L6.28186 9.21996C6.57475 9.51285 6.57475 9.98773 6.28186 10.2806C5.98896 10.5735 5.51409 10.5735 5.2212 10.2806L4.53144 9.59086C4.55554 10.1994 4.5934 10.8044 4.64472 11.4055C4.69253 11.9656 5.14144 12.4022 5.70278 12.4343C6.46288 12.4779 7.22882 12.5 8 12.5C8.77118 12.5 9.53712 12.4779 10.2972 12.4343C10.8586 12.4022 11.3075 11.9656 11.3553 11.4055C11.3615 11.3329 11.3675 11.2602 11.3733 11.1875C11.4063 10.7746 11.7677 10.4666 12.1806 10.4996C12.5935 10.5325 12.9015 10.894 12.8685 11.3069C12.8625 11.3823 12.8563 11.4578 12.8499 11.5331C12.7386 12.8368 11.6892 13.857 10.3831 13.9319C9.5944 13.9771 8.79983 14 8 14C7.20017 14 6.4056 13.9771 5.61693 13.9319C4.31079 13.857 3.26145 12.8368 3.15015 11.5331C3.0936 10.8707 3.0528 10.2038 3.02813 9.53282L2.28033 10.2806C1.98744 10.5735 1.51256 10.5735 1.21967 10.2806C0.926777 9.98773 0.926777 9.51285 1.21967 9.21996L3.22043 7.2192Z" fill="#0F172A"/>
</svg>

<svg xmlns="http://www.w3.org/2000/svg" viewBox="0 0 16 16" fill="currentColor" aria-hidden="true" data-slot="icon">
  <path fill-rule="evenodd" d="M8 3.5c-.771 0-1.537.022-2.297.066a1.124 1.124 0 0 0-1.058 1.028l-.018.214a.75.75 0 1 1-1.495-.12l.018-.221a2.624 2.624 0 0 1 2.467-2.399 41.628 41.628 0 0 1 4.766 0 2.624 2.624 0 0 1 2.467 2.399c.056.662.097 1.329.122 2l.748-.748a.75.75 0 1 1 1.06 1.06l-2 2.001a.75.75 0 0 1-1.061 0l-2-1.999a.75.75 0 0 1 1.061-1.06l.689.688a39.89 39.89 0 0 0-.114-1.815 1.124 1.124 0 0 0-1.058-1.028A40.138 40.138 0 0 0 8 3.5ZM3.22 7.22a.75.75 0 0 1 1.061 0l2 2a.75.75 0 1 1-1.06 1.06l-.69-.69c.025.61.062 1.214.114 1.816.048.56.496.996 1.058 1.028a40.112 40.112 0 0 0 4.594 0 1.124 1.124 0 0 0 1.058-1.028 39.2 39.2 0 0 0 .018-.219.75.75 0 1 1 1.495.12l-.018.226a2.624 2.624 0 0 1-2.467 2.399 41.648 41.648 0 0 1-4.766 0 2.624 2.624 0 0 1-2.467-2.399 41.395 41.395 0 0 1-.122-2l-.748.748A.75.75 0 1 1 1.22 9.22l2-2Z" clip-rule="evenodd"/>
</svg>
